NotoEmoji/emoji_u1f9db_200d_2640.svg

<?xml version="1.0" encoding="UTF-8" standalone="no"?>
<svg
   enable-background="new 0 0 128 128"
   viewBox="0 0 128 128"
   version="1.1"
   id="svg87"
   sodipodi:docname="emoji_u1f9db_200d_2640.svg"
   inkscape:version="1.2.2 (732a01da63, 2022-12-09)"
   xmlns:inkscape="http://www.inkscape.org/namespaces/inkscape"
   xmlns:sodipodi="http://sodipodi.sourceforge.net/DTD/sodipodi-0.dtd"
   xmlns:xlink="http://www.w3.org/1999/xlink"
   xmlns="http://www.w3.org/2000/svg"
   xmlns:svg="http://www.w3.org/2000/svg">
  <defs
     id="defs91" />
  <sodipodi:namedview
     id="namedview89"
     pagecolor="#ffffff"
     bordercolor="#666666"
     borderopacity="1.0"
     inkscape:showpageshadow="2"
     inkscape:pageopacity="0.0"
     inkscape:pagecheckerboard="0"
     inkscape:deskcolor="#d1d1d1"
     showgrid="false"
     inkscape:zoom="5.2149125"
     inkscape:cx="40.748526"
     inkscape:cy="65.772916"
     inkscape:window-width="1680"
     inkscape:window-height="998"
     inkscape:window-x="-8"
     inkscape:window-y="-8"
     inkscape:window-maximized="1"
     inkscape:current-layer="svg87" />
  <linearGradient
     id="a">
    <stop
       offset=".0032"
       stop-color="#3a3233"
       id="stop2" />
    <stop
       offset=".3326"
       stop-color="#2d2728"
       id="stop4" />
    <stop
       offset=".9409"
       stop-color="#0b0909"
       id="stop6" />
    <stop
       offset="1"
       stop-color="#070606"
       id="stop8" />
  </linearGradient>
  <linearGradient
     id="b"
     gradientTransform="matrix(1 0 0 -1 0 130)"
     gradientUnits="userSpaceOnUse"
     x1="64"
     x2="64"
     xlink:href="#a"
     y1="64.65"
     y2="-96.97" />
  <linearGradient
     id="c"
     gradientTransform="matrix(1 0 0 -1 0 130)"
     gradientUnits="userSpaceOnUse"
     x1="64"
     x2="64"
     y1="64.02"
     y2="18.57">
    <stop
       offset=".0032"
       stop-color="#f70000"
       id="stop12" />
    <stop
       offset=".2347"
       stop-color="#f30000"
       id="stop14" />
    <stop
       offset=".4427"
       stop-color="#e90000"
       id="stop16" />
    <stop
       offset=".6417"
       stop-color="#d60000"
       id="stop18" />
    <stop
       offset=".834"
       stop-color="#bd0000"
       id="stop20" />
    <stop
       offset="1"
       stop-color="#a00000"
       id="stop22" />
  </linearGradient>
  <linearGradient
     id="d"
     gradientTransform="matrix(1 0 0 -1 0 130)"
     gradientUnits="userSpaceOnUse"
     x1="64"
     x2="64"
     y1="9.35"
     y2="38.54">
    <stop
       offset=".3609"
       stop-color="#ffca28"
       id="stop25" />
    <stop
       offset=".8228"
       stop-color="#ffb300"
       id="stop27" />
  </linearGradient>
  <radialGradient
     id="e"
     cx="64.17"
     cy="63.76"
     gradientTransform="matrix(0 1 .7824 0 14.28 -.2)"
     gradientUnits="userSpaceOnUse"
     r="59.86">
    <stop
       offset=".8436"
       stop-color="#6d4c41"
       stop-opacity="0"
       id="stop30" />
    <stop
       offset="1"
       stop-color="#6d4c41"
       id="stop32" />
  </radialGradient>
  <linearGradient
     id="g"
     gradientTransform="matrix(1 0 0 -1 0 130)"
     gradientUnits="userSpaceOnUse"
     x1="63.83"
     x2="63.83"
     xlink:href="#a"
     y1="34.76"
     y2="23.23" />
  <linearGradient
     id="h"
     gradientTransform="matrix(1 0 0 -1 0 130)"
     gradientUnits="userSpaceOnUse"
     x1="28.69"
     x2="52.39"
     y1="80.97"
     y2="108.36">
    <stop
       offset="0"
       stop-color="#e0e0e0"
       stop-opacity="0"
       id="stop39" />
    <stop
       offset=".7447"
       stop-color="#e0e0e0"
       id="stop41" />
  </linearGradient>
  <radialGradient
     id="i"
     cx="64.61"
     cy="6.78"
     gradientTransform="matrix(1 0 0 -.5476 0 127.76)"
     gradientUnits="userSpaceOnUse"
     r="64.52">
    <stop
       offset=".6009"
       stop-color="#212121"
       id="stop44" />
    <stop
       offset="1"
       stop-color="#616161"
       id="stop46" />
  </radialGradient>
  <path
     d="m4 74.82s23.95-9.01 60-8.84c17.58.08 37.33 3.02 60 8.84 0 0-23.39 45.35-60 45.35s-56.09-36.38-60-45.35z"
     fill="url(#b)"
     id="path49" />
  <path
     d="m4 74.82s52.66-19.89 120 0c0 0-23.56 37.01-60.17 37.01s-55.92-29.2-59.83-37.01z"
     fill="url(#c)"
     id="path51" />
  <path
     d="m64.57 4.12c-41.01 0-40.68 37.92-40.68 38.52 0 24.56 1.88 59.25 11.71 72.9 3.9 5.41 11.43 5.71 11.43 5.71l16.97-.02 16.97.03s7.54-.3 11.43-5.71c9.83-13.65 11.71-48.34 11.71-72.9-.01-.61 1.47-38.53-39.54-38.53z"
     fill="#543930"
     id="path53" />
  <path
     d="m91.47 99.29c-5.64-1.64-11.91-2.7-18.39-3.22v-5.99h-9.08-9.08v5.97c-6.44.48-12.7 1.46-18.34 3.01-.16.76-.24 1.54-.24 2.32 0 9.79 12.39 17.74 27.67 17.74s27.67-7.94 27.67-17.74c-.01-.71-.08-1.41-.21-2.09z"
     fill="url(#d)"
     id="path55" />
  <path
     d="m64 16.04c-17.2 0-33.13 12.79-33.13 39.91 0 21.78 13.49 34.67 25.23 38.83 2.8.99 5.5 1.49 7.9 1.49 2.38 0 5.07-.49 7.85-1.47 11.76-4.14 25.28-17.03 25.28-38.84 0-27.13-15.93-39.92-33.13-39.92z"
     fill="#ffca28"
     id="path57" />
  <ellipse
     cx="47.75"
     cy="58.87"
     fill="#404040"
     rx="4.87"
     ry="5.04"
     id="ellipse59" />
  <ellipse
     cx="80.25"
     cy="58.87"
     fill="#404040"
     rx="4.87"
     ry="5.04"
     id="ellipse61" />
  <path
     d="m54.99 49.82c-.93-1.23-3.07-3.01-7.23-3.01s-6.31 1.79-7.23 3.01c-.41.54-.31 1.17-.02 1.55.26.35 1.04.68 1.9.39s2.54-1.16 5.35-1.18c2.81.02 4.49.89 5.35 1.18s1.64-.03 1.9-.39c.28-.38.38-1.01-.02-1.55z"
     fill="#6d4c41"
     id="path63" />
  <path
     d="m87.48 49.82c-.93-1.23-3.07-3.01-7.23-3.01s-6.31 1.79-7.23 3.01c-.41.54-.31 1.17-.02 1.55.26.35 1.04.68 1.9.39s2.54-1.16 5.35-1.18c2.81.02 4.49.89 5.35 1.18s1.64-.03 1.9-.39c.29-.38.39-1.01-.02-1.55z"
     fill="#6d4c41"
     id="path65" />
  <path
     d="m72.32 76.14c-3.15 1.87-13.47 1.87-16.61 0-1.81-1.07-3.65.57-2.9 2.21.74 1.61 6.37 5.36 11.23 5.36s10.42-3.75 11.16-5.36c.75-1.64-1.08-3.29-2.88-2.21z"
     fill="#795548"
     id="path67" />
  <path
     d="m67.81 68.06c-.11-.04-.21-.07-.32-.08h-6.99c-.11.01-.21.04-.32.08-.63.26-.98.91-.68 1.61s1.69 2.66 4.49 2.66 4.2-1.96 4.49-2.66c.31-.7-.03-1.36-.67-1.61z"
     fill="#e59600"
     id="path69" />
  <path
     d="m64.08 7.07c-.03 0-.05 0-.08 0s-.05 0-.08 0c-38.83 0-37.81 35.57-37.81 35.57s.09 45.38 3.05 51.39c2.96 6.02 7.65 3.64 7.65 3.64s-3.08-23.18-3.05-37.06c.07-24.78 17.24-38.44 30.24-24.61 13-13.83 30.17-.17 30.24 24.62.04 13.88-3.05 37.06-3.05 37.06s4.68 2.37 7.65-3.64c2.96-6.02 3.05-51.39 3.05-51.39s1.02-35.58-37.81-35.58z"
     fill="#543930"
     id="path71" />
  <path
     d="m104.1 42.65c0 18.35-1.04 42.35-5.67 59-9.58-3.79-21.97-5.65-34.29-5.65h-.14c-12.34.02-24.85 1.66-34.51 5.37-4.56-16.64-5.6-40.48-5.6-58.72 0-.61-.33-38.53 40.68-38.53s39.53 37.92 39.53 38.53z"
     fill="url(#e)"
     id="path73" />
  <path
     id="path77"
     style="fill:#ffffff"
     d="M 55.404297 76.029297 L 56.330078 80.650391 L 58.449219 77.082031 C 57.272002 76.851713 56.278409 76.538258 55.609375 76.140625 C 55.540967 76.099879 55.472677 76.062474 55.404297 76.029297 z M 72.603516 76.039062 C 72.542399 76.069442 72.481113 76.104178 72.419922 76.140625 C 71.744115 76.542284 70.737854 76.856951 69.544922 77.087891 L 71.669922 80.650391 L 72.603516 76.039062 z " />
  <path
     d="m76.7 95.1c-1.15-.38-2.36.08-3.38.74-1.45.93-2.82 1.55-4.11 1.99-1.3.44-2.54.69-3.74.82-.55.06-1.09.08-1.63.09-.54 0-1.09-.03-1.63-.09-1.21-.13-2.44-.38-3.74-.82s-2.67-1.06-4.12-1.99c-1.02-.66-2.23-1.11-3.38-.74-2.7.89-.12 11.3 12.87 11.39 12.98-.09 15.56-10.49 12.86-11.39z"
     fill="url(#g)"
     id="path81" />
  <path
     d="m64 25.12s-11.63-16.85-26.75-3.88c-13.25 11.38-8.72 46.14-8.72 46.14s.44-35.72 15.47-43.9c10.8-5.88 20 1.64 20 1.64z"
     fill="url(#h)"
     id="path83" />
  <path
     d="m116 120.83v3.17h-104v-3.17c0-10.94 9.91-17.92 24.55-21.64-.14.72-.22 1.45-.22 2.19 0 9.79 12.39 17.73 27.67 17.73s27.67-7.94 27.67-17.73c0-.67-.06-1.33-.18-1.98 3.31.9 6.28 1.94 8.7 3 7.21 3.14 15.81 8.89 15.81 18.43z"
     fill="url(#i)"
     id="path85" />
</svg>

<svg enable-background="new 0 0 128 128" viewBox="0 0 128 128" xmlns="http://www.w3.org/2000/svg" xmlns:xlink="http://www.w3.org/1999/xlink"><linearGradient id="a"><stop offset=".0032" stop-color="#3a3233"/><stop offset=".3326" stop-color="#2d2728"/><stop offset=".9409" stop-color="#0b0909"/><stop offset="1" stop-color="#070606"/></linearGradient><linearGradient id="b" gradientTransform="matrix(1 0 0 -1 0 130)" gradientUnits="userSpaceOnUse" x1="64" x2="64" xlink:href="#a" y1="64.65" y2="-96.97"/><linearGradient id="c" gradientTransform="matrix(1 0 0 -1 0 130)" gradientUnits="userSpaceOnUse" x1="64" x2="64" y1="64.02" y2="18.57"><stop offset=".0032" stop-color="#f70000"/><stop offset=".2347" stop-color="#f30000"/><stop offset=".4427" stop-color="#e90000"/><stop offset=".6417" stop-color="#d60000"/><stop offset=".834" stop-color="#bd0000"/><stop offset="1" stop-color="#a00000"/></linearGradient><linearGradient id="d" gradientTransform="matrix(1 0 0 -1 0 130)" gradientUnits="userSpaceOnUse" x1="64" x2="64" y1="9.35" y2="38.54"><stop offset=".3609" stop-color="#ffca28"/><stop offset=".8228" stop-color="#ffb300"/></linearGradient><radialGradient id="e" cx="64.17" cy="63.76" gradientTransform="matrix(0 1 .7824 0 14.28 -.2)" gradientUnits="userSpaceOnUse" r="59.86"><stop offset=".8436" stop-color="#6d4c41" stop-opacity="0"/><stop offset="1" stop-color="#6d4c41"/></radialGradient><linearGradient id="f" gradientTransform="matrix(1 0 0 -1 0 130)" gradientUnits="userSpaceOnUse" x1="63.83" x2="63.83" xlink:href="#a" y1="34.76" y2="23.23"/><linearGradient id="g" gradientTransform="matrix(1 0 0 -1 0 130)" gradientUnits="userSpaceOnUse" x1="28.69" x2="52.39" y1="80.97" y2="108.36"><stop offset="0" stop-color="#e0e0e0" stop-opacity="0"/><stop offset=".7447" stop-color="#e0e0e0"/></linearGradient><radialGradient id="h" cx="64.61" cy="6.78" gradientTransform="matrix(1 0 0 -.5476 0 127.76)" gradientUnits="userSpaceOnUse" r="64.52"><stop offset=".6009" stop-color="#212121"/><stop offset="1" stop-color="#616161"/></radialGradient><path d="m4 74.82s23.95-9.01 60-8.84c17.58.08 37.33 3.02 60 8.84 0 0-23.39 45.35-60 45.35s-56.09-36.38-60-45.35z" fill="url(#b)"/><path d="m4 74.82s52.66-19.89 120 0c0 0-23.56 37.01-60.17 37.01s-55.92-29.2-59.83-37.01z" fill="url(#c)"/><path d="m64.57 4.12c-41.01 0-40.68 37.92-40.68 38.52 0 24.56 1.88 59.25 11.71 72.9 3.9 5.41 11.43 5.71 11.43 5.71l16.97-.02 16.97.03s7.54-.3 11.43-5.71c9.83-13.65 11.71-48.34 11.71-72.9-.01-.61 1.47-38.53-39.54-38.53z" fill="#543930"/><path d="m91.47 99.29c-5.64-1.64-11.91-2.7-18.39-3.22v-5.99h-9.08-9.08v5.97c-6.44.48-12.7 1.46-18.34 3.01-.16.76-.24 1.54-.24 2.32 0 9.79 12.39 17.74 27.67 17.74s27.67-7.94 27.67-17.74c-.01-.71-.08-1.41-.21-2.09z" fill="url(#d)"/><path d="m64 16.04c-17.2 0-33.13 12.79-33.13 39.91 0 21.78 13.49 34.67 25.23 38.83 2.8.99 5.5 1.49 7.9 1.49 2.38 0 5.07-.49 7.85-1.47 11.76-4.14 25.28-17.03 25.28-38.84 0-27.13-15.93-39.92-33.13-39.92z" fill="#ffca28"/><ellipse cx="47.75" cy="58.87" fill="#404040" rx="4.87" ry="5.04"/><ellipse cx="80.25" cy="58.87" fill="#404040" rx="4.87" ry="5.04"/><path d="m54.99 49.82c-.93-1.23-3.07-3.01-7.23-3.01s-6.31 1.79-7.23 3.01c-.41.54-.31 1.17-.02 1.55.26.35 1.04.68 1.9.39s2.54-1.16 5.35-1.18c2.81.02 4.49.89 5.35 1.18s1.64-.03 1.9-.39c.28-.38.38-1.01-.02-1.55z" fill="#6d4c41"/><path d="m87.48 49.82c-.93-1.23-3.07-3.01-7.23-3.01s-6.31 1.79-7.23 3.01c-.41.54-.31 1.17-.02 1.55.26.35 1.04.68 1.9.39s2.54-1.16 5.35-1.18c2.81.02 4.49.89 5.35 1.18s1.64-.03 1.9-.39c.29-.38.39-1.01-.02-1.55z" fill="#6d4c41"/><path d="m72.32 76.14c-3.15 1.87-13.47 1.87-16.61 0-1.81-1.07-3.65.57-2.9 2.21.74 1.61 6.37 5.36 11.23 5.36s10.42-3.75 11.16-5.36c.75-1.64-1.08-3.29-2.88-2.21z" fill="#795548"/><path d="m67.81 68.06c-.11-.04-.21-.07-.32-.08h-6.99c-.11.01-.21.04-.32.08-.63.26-.98.91-.68 1.61s1.69 2.66 4.49 2.66 4.2-1.96 4.49-2.66c.31-.7-.03-1.36-.67-1.61z" fill="#e59600"/><path d="m64.08 7.07c-.03 0-.05 0-.08 0s-.05 0-.08 0c-38.83 0-37.81 35.57-37.81 35.57s.09 45.38 3.05 51.39c2.96 6.02 7.65 3.64 7.65 3.64s-3.08-23.18-3.05-37.06c.07-24.78 17.24-38.44 30.24-24.61 13-13.83 30.17-.17 30.24 24.62.04 13.88-3.05 37.06-3.05 37.06s4.68 2.37 7.65-3.64c2.96-6.02 3.05-51.39 3.05-51.39s1.02-35.58-37.81-35.58z" fill="#543930"/><path d="m104.1 42.65c0 18.35-1.04 42.35-5.67 59-9.58-3.79-21.97-5.65-34.29-5.65h-.14c-12.34.02-24.85 1.66-34.51 5.37-4.56-16.64-5.6-40.48-5.6-58.72 0-.61-.33-38.53 40.68-38.53s39.53 37.92 39.53 38.53z" fill="url(#e)"/><path d="m55.4 76.03.93 4.62 2.12-3.57c-1.18-.23-2.17-.54-2.84-.94-.07-.04-.14-.08-.21-.11zm17.2.01c-.06.03-.12.06-.18.1-.68.4-1.68.72-2.88.95l2.13 3.56z" fill="#fff"/><path d="m76.7 95.1c-1.15-.38-2.36.08-3.38.74-1.45.93-2.82 1.55-4.11 1.99-1.3.44-2.54.69-3.74.82-.55.06-1.09.08-1.63.09-.54 0-1.09-.03-1.63-.09-1.21-.13-2.44-.38-3.74-.82s-2.67-1.06-4.12-1.99c-1.02-.66-2.23-1.11-3.38-.74-2.7.89-.12 11.3 12.87 11.39 12.98-.09 15.56-10.49 12.86-11.39z" fill="url(#f)"/><path d="m64 25.12s-11.63-16.85-26.75-3.88c-13.25 11.38-8.72 46.14-8.72 46.14s.44-35.72 15.47-43.9c10.8-5.88 20 1.64 20 1.64z" fill="url(#g)"/><path d="m116 120.83v3.17h-104v-3.17c0-10.94 9.91-17.92 24.55-21.64-.14.72-.22 1.45-.22 2.19 0 9.79 12.39 17.73 27.67 17.73s27.67-7.94 27.67-17.73c0-.67-.06-1.33-.18-1.98 3.31.9 6.28 1.94 8.7 3 7.21 3.14 15.81 8.89 15.81 18.43z" fill="url(#h)"/></svg>
